T: Revenge Of The Smelly Whistle, The
M: 4/4
L: 1/8
K: Emin
BG|:~E3B AFDF|~E3B A2FD|~E3B ABde|1fedB AFBF:|2fedB AFBA||
Begf edBA|Bdgf edBA|BF~F2 ~B3F|1GFE^A B2cB:|2GAB^d e2||
